!!!OTL: 129. Maria wiegt ihr Kind. / a.
!!!ARE: Europa, Mitteleuropa, Deutschland, Oberschlesien
!!!SCT: K0129
!!!TXL: @@GMH
!!!YEM: Copyright 1995, estate of Helmut Schaffrath.
**kern	**text
*clefG2	*
*M6/8	*
*k[f#]	*
*G:	*
{16dd	Uf'm
16cc	.
=1	=1
8.b	Ber-
16cc	-gn
8b	da
8aL	gieht
8bJ	.
8a	dar
=2	=2
4.g	Wind,
4r}	.
{16dd	da
16cc	.
=3	=3
8.b	wiegt
16cc	de
8b	Ma-
8aL	-ri-
8bJ	-a
8a	ihr
=4	=4
4.g	Kind,
4r}	.
{8b	mit
=5	=5
8a	ih-
8b	-rer
8cc#	ſchloh-
8ddL	-en-
8aJ	.
8f#	-gel-
=6	=6
8g	-wei-
8e	.
8a	-ßen
4d}	Hand,
{8b	ſe
=7	=7
8a	hat
8b	och
8cc#	der-
8ddL	-ʒu
8aJ	.
8f#	keen
=8	=8
8g	Wie-
8e	.
8a	-gen-
4d}	-band.
!LO:TX:a:t=Maria.	!
{8ccn	Ach
=9	=9
8bL	Jo-
8aJ	.
8a	-ſeph,
8aL	lie-
8gJ	.
8g	-ber
=10	=10
8f#L	Jo-
8eJ	.
8f#	-ſeph,
4g}	mein,
{8cc	ach
=11	=11
8bL	hilf
8aJ	.
8a	mir
8aL	wieg'n
8gJ	.
8g	mein
=12	=12
8f#L	Kna-
8eJ	.
8f#	-be-
4g}	-lein
!LO:TX:a:t=Joseph.	!
{8d	Wie
=13	=13
8g	kann
8g	ich
8g	d'r
(<8b-	denn
8a)	.
8g	dei
=14	=14
8f#L	Knab-
8gJ	.
8a	-la
4d}	wiegn?
{8d	ich
=15	=15
8g	kann
8g	ja
8g	kaum
(<8b-	ſel-
8a)	-ber
8g	die
=16	=16
8f#L	Fingerln
8gJ	.
8a	.
4d	biegn.
8r}	.
=17	=17
!LO:TX:a:t=Maria.	!
{4.b	Schum,
4.g	ſchei,
=18	=18
4.b	ſchum,
4.g}	ſchei!
==	==
!!!AGN: Kinder -, Wiegen - Lied
!!!ONB: ESAC (Essen Associative Code) Database: KINDER
!!!AMT: compound duple
!!!AIN: vox
!!!EED: Helmut Schaffrath
!!!EEV: 1.0
!!!RDF**kern: < = below
!!Aus Oberschlesien.
!!!GTL: I. Wiegenlieder.
!!@@COMMENT:"Aus dem oberschlesichen Gebirge, Gegend von Reichenbach: Firmenich II. 348."
!!@@END:
!!!URL-scan: https://archive.org/details/DeutschesKinderliedUndKinderspiel/page/37/mode/1up
!!!ENC: Anna Maria Matuszewska
!!!EEV: 2024/29/08
*-	*-
